X:118
T:Three And The Duce. WM.118
T:Three And The Deuce. WM.118
M:2/4
L:1/16
Q:1/4=90
S:Wm.Mittell’s MS, New Romney,Kent,1799
R:.Country Dance
O:England
A:Kent
Z:vmp.Chris Partington
K:D
dfaf agf2|fdcd (ed)A2|dfaf dbge|faAc d2d2:|!
|:FAdF GBe^G|Aceg|(gf)(ed)|FAdF Gdgb|afec d2d2:|

